X:1
T:Title
%%score ( 1 2 ) { 3 | 4 }
L:1/8
Q:1/4=105
M:4/4
K:G
V:1 treble nm="Grand Piano, Staff"
V:2 treble 
V:3 bass nm="Choir Pad, Brynteg, LM"
V:4 bass 
V:1
 E2 [EG]2 [EA]2 [^DB]2 | EF [EG]2 [^DF]2 E2 | [EG]2 [EA]2 [EB]2 [Ec]2 | [^DB]2 [EB]2 [EA]2 [DB]2- | %4
w: By~John~Ambrose~Lloyd~(1815\-1874) * * *||||
 [DB]2 [=DB]2 [FB]2 [F^c]2 | [Fd]2 [FB]2 [Ee]2 GA | [^DB]2 [EG]2 [EA]2 [Ec]2 | %7
w: |||
 [^DB]2 EF [EG]2 [DF]2 | E8 |] %9
w: ||
V:2
 x8 | x8 | x8 | x8 | x8 | z4 z2 E2 | x8 | x8 | x8 |] %9
V:3
 G,2 B,2 A,2 A,2 | G,A, B,2 A,2 G,2 | B,2 A,2 G,2 A,2 | F,2 E,G, F,E, F,2- | F,2 F,B, B,2 _B,2 | %5
 B,2 D2 B,2 B,2 | B,2 B,2 A,2 A,2 | A,2 G,A, B,2 A,2 | G,8 |] %9
V:4
 E,2 E,2 C,2 B,,2 | C,2 G,,2 B,,2 E,2 | E,2 C,2 E,2 A,,2 | B,,2 C,2 C,2 B,,2- | B,,2 B,,2 D,2 F,2 | %5
 z2 B,2 G,2 E,2 | B,,2 E,2 C,2 A,,2 | B,,2 C,2 B,,2 B,,2 | E,8 |] %9

